train-car-passenger.svg

<svg  viewBox="0 0 24 24" fill="currentColor"><path  d="M21 7H3C1.9 7 1 7.9 1 9V17H2C2 18.11 2.9 19 4 19S6 18.11 6 17H18C18 18.11 18.9 19 20 19S22 18.11 22 17H23V9C23 7.9 22.11 7 21 7M7 12H3V9H7V12M15 12H9V9H15V12M21 12H17V9H21V12Z"/></svg>

<svg fill="currentColor" viewBox="0 0 24 24"><path d="M21 7H3c-1.1 0-2 .9-2 2v8h1a2 2 0 1 0 4 0h12a2 2 0 1 0 4 0h1V9a2 2 0 0 0-2-2M7 12H3V9h4zm8 0H9V9h6zm6 0h-4V9h4z"/></svg>
